.local/share/icons/Gruvbox-Plus-Dark/mimetypes/scalable/application-vnd.coffeescript.svg

<svg width="256" height="256" viewBox="0 0 256 256" fill="none" xmlns="http://www.w3.org/2000/svg">
<g opacity="0.4" filter="url(#filter0_f)">
<path d="M55.0839 15.5636H155.608L216.009 75.7129L216.011 224.609C216.011 233.52 208.749 240.737 199.838 240.737H55.0838C46.1734 240.737 39 233.564 39 224.654V31.6474C39 22.737 46.1734 15.5636 55.0838 15.5636H55.0839Z" fill="#282828"/>
</g>
<path d="M55.0839 15H155.608L216.009 75.1493L216.011 224.045C216.011 232.956 208.749 240.174 199.838 240.174H55.0838C46.1734 240.174 39 233 39 224.09V31.0838C39 22.1734 46.1734 15 55.0838 15H55.0839Z" fill="#ebdbb2"/>
<path fill-rule="evenodd" clip-rule="evenodd" d="M155.608 20.3191H55.0839C49.1112 20.3191 44.3191 25.1111 44.3191 31.0838V224.09C44.3191 230.063 49.1111 234.855 55.0838 234.855H199.838C205.83 234.855 210.692 229.999 210.692 224.046V75.1493L155.608 20.3191ZM155.608 15H55.0839C46.1735 15 39 22.1734 39 31.0838V224.09C39 233 46.1734 240.174 55.0838 240.174H199.838C208.749 240.174 216.011 232.956 216.011 224.045L216.009 75.1493L155.608 15Z" fill="url(#paint0_linear)"/>
<path d="M116.456 86.968C116.558 87.58 116.252 88.089 115.234 88.598C113.909 87.885 111.057 87.478 108.714 87.681C106.167 87.885 104.027 88.701 104.333 90.432C104.74 92.164 107.186 93.183 111.566 92.775C122.263 91.858 122.161 84.625 137.85 83.199C150.075 82.079 156.9 85.848 157.818 90.432C158.531 93.998 155.577 97.462 146.713 98.175C138.869 98.888 134.284 96.749 133.877 94.609C133.673 93.489 134.284 91.859 138.054 91.451C138.462 93.183 140.601 95.017 145.694 94.507C149.362 94.202 152.418 92.877 152.011 90.84C151.604 88.7 147.732 87.478 141.619 87.987C129.19 89.107 126.135 95.934 115.539 96.851C108.001 97.564 101.888 94.812 101.073 90.738C100.767 89.21 100.767 85.644 108.713 84.931C112.789 84.625 116.049 85.338 116.456 86.968V86.968ZM76.725 129.553C73.261 133.933 71.733 139.027 72.038 144.019C72.344 149.011 74.788 153.086 78.66 156.244C82.735 159.402 87.116 160.319 92.108 159.402C94.043 159.097 96.183 158.078 98.118 157.467C94.043 157.467 90.58 156.142 87.116 153.392C83.346 150.641 80.799 146.77 80.188 142.083C79.271 137.703 80.188 133.628 82.633 130.063C85.384 126.598 88.95 124.663 93.636 124.051C98.322 123.746 102.397 124.968 106.472 127.821C105.555 126.496 104.232 125.579 103.009 124.357C98.933 121.607 94.553 120.282 89.153 121.607C84.263 122.625 80.188 125.172 76.725 129.553V129.553ZM131.33 106.019C118.188 106.019 106.472 104.695 98.016 102.861C88.95 100.62 84.161 98.175 84.161 95.017C84.161 93.692 84.773 92.571 86.607 91.247C80.901 93.488 77.845 95.322 77.845 98.175C78.151 101.333 83.245 104.491 93.635 106.936C103.416 109.381 115.947 110.706 131.025 110.706C146.408 110.706 158.633 109.381 168.413 106.936C178.804 104.491 183.796 101.231 183.796 98.175C183.796 95.934 181.555 93.795 177.48 92.165C178.397 92.775 179.11 93.795 179.11 94.915C179.11 98.073 174.424 100.62 164.95 102.759C156.188 104.695 144.982 106.019 131.33 106.019V106.019ZM168.82 114.781C159.04 117.022 146.51 118.551 131.432 118.551C116.049 118.551 103.518 116.92 93.738 114.781C84.976 112.539 80.291 110.094 78.66 107.547C80.29 118.55 84.06 128.941 89.052 138.11C92.822 143.815 96.59 148.807 100.36 154.207C101.914 157.204 103.078 160.388 103.823 163.681C106.269 167.145 109.835 169.386 114.215 170.609C119.564 172.535 125.246 173.366 130.923 173.054H131.533C137.239 173.359 143.25 172.442 148.751 170.609C152.826 169.284 156.29 167.145 158.837 163.681H159.142C159.777 160.399 160.839 157.214 162.3 154.207C166.07 148.807 169.84 143.815 173.609 138.11C178.6 129.043 182.065 118.652 184 107.547C181.963 110.4 177.276 112.845 168.82 114.781V114.781Z" fill="url(#paint1_linear)"/>
<path opacity="0.25" d="M155.608 17V61.2306C155.608 70.141 162.867 77.1605 171.777 77.1605L216.009 77.1493V75.1493L155.608 17Z" fill="#282828"/>
<path d="M155.608 15V59.2306C155.608 68.141 162.867 75.1605 171.777 75.1605L216.009 75.1493L155.608 15Z" fill="url(#paint2_linear)"/>
<defs>
<filter id="filter0_f" x="23.8778" y="0.441412" width="207.255" height="255.418" filterUnits="userSpaceOnUse" color-interpolation-filters="sRGB">
<feFlood flood-opacity="0" result="BackgroundImageFix"/>
<feBlend mode="normal" in="SourceGraphic" in2="BackgroundImageFix" result="shape"/>
<feGaussianBlur stdDeviation="7.5611" result="effect1_foregroundBlur"/>
</filter>
<linearGradient id="paint0_linear" x1="39" y1="15" x2="39" y2="240.174" gradientUnits="userSpaceOnUse">
<stop offset="1e-07" stop-color="#b16286"/>
<stop offset="1" stop-color="#8f3f71"/>
</linearGradient>
<linearGradient id="paint1_linear" x1="72" y1="83" x2="72" y2="173.118" gradientUnits="userSpaceOnUse">
<stop offset="1e-07" stop-color="#b16286"/>
<stop offset="1" stop-color="#8f3f71"/>
</linearGradient>
<linearGradient id="paint2_linear" x1="155.608" y1="15" x2="155.608" y2="75.1605" gradientUnits="userSpaceOnUse">
<stop offset="1e-07" stop-color="#b16286"/>
<stop offset="1" stop-color="#8f3f71"/>
</linearGradient>
</defs>
</svg>

<svg width="256" height="256" fill="none" version="1.1" viewBox="0 0 256 256" xmlns="http://www.w3.org/2000/svg">
  <path d="m55.08 15h100.5l60.4 60.15 2e-3 148.9c0 8.911-7.262 16.13-16.17 16.13h-144.8c-8.91 0-16.08-7.174-16.08-16.08v-193c0-8.91 7.173-16.08 16.08-16.08h1e-4z" fill="#ebdbb2"/>
  <path d="m155.6 20.32h-100.5c-5.973 0-10.76 4.792-10.76 10.76v193c0 5.973 4.792 10.76 10.76 10.76h144.8c5.992 0 10.85-4.856 10.85-10.81v-148.9l-55.08-54.83zm0-5.319h-100.5c-8.91 0-16.08 7.173-16.08 16.08v193c0 8.91 7.173 16.08 16.08 16.08h144.8c8.911 0 16.17-7.218 16.17-16.13l-2e-3 -148.9-60.4-60.15z" clip-rule="evenodd" fill="url(#paint0_linear)" fill-rule="evenodd"/>
  <path d="m116.5 86.97c0.102 0.612-0.204 1.121-1.222 1.63-1.325-0.713-4.177-1.12-6.52-0.917-2.547 0.204-4.687 1.02-4.381 2.751 0.407 1.732 2.853 2.751 7.233 2.343 10.7-0.917 10.6-8.15 26.28-9.576 12.22-1.12 19.05 2.649 19.97 7.233 0.713 3.566-2.241 7.03-11.1 7.743-7.844 0.713-12.43-1.426-12.84-3.566-0.204-1.12 0.407-2.75 4.177-3.158 0.408 1.732 2.547 3.566 7.64 3.056 3.668-0.305 6.724-1.63 6.317-3.667-0.407-2.14-4.279-3.362-10.39-2.853-12.43 1.12-15.48 7.947-26.08 8.864-7.538 0.713-13.65-2.039-14.47-6.113-0.306-1.528-0.306-5.094 7.64-5.807 4.076-0.306 7.336 0.407 7.743 2.037zm-39.73 42.58c-3.464 4.38-4.992 9.474-4.687 14.47 0.306 4.992 2.75 9.067 6.622 12.22 4.075 3.158 8.456 4.075 13.45 3.158 1.935-0.305 4.075-1.324 6.01-1.935-4.075 0-7.538-1.325-11-4.075-3.77-2.751-6.317-6.622-6.928-11.31-0.917-4.38 0-8.455 2.445-12.02 2.751-3.465 6.317-5.4 11-6.012 4.686-0.305 8.761 0.917 12.84 3.77-0.917-1.325-2.24-2.242-3.463-3.464-4.076-2.75-8.456-4.075-13.86-2.75-4.89 1.018-8.965 3.565-12.43 7.946zm54.6-23.53c-13.14 0-24.86-1.324-33.31-3.158-9.066-2.241-13.86-4.686-13.86-7.844 0-1.325 0.612-2.446 2.446-3.77-5.706 2.241-8.762 4.075-8.762 6.928 0.306 3.158 5.4 6.316 15.79 8.761 9.781 2.445 22.31 3.77 37.39 3.77 15.38 0 27.61-1.325 37.39-3.77 10.39-2.445 15.38-5.705 15.38-8.761 0-2.241-2.241-4.38-6.316-6.01 0.917 0.61 1.63 1.63 1.63 2.75 0 3.158-4.686 5.705-14.16 7.844-8.762 1.936-19.97 3.26-33.62 3.26zm37.49 8.762c-9.78 2.241-22.31 3.77-37.39 3.77-15.38 0-27.91-1.631-37.69-3.77-8.762-2.242-13.45-4.687-15.08-7.234 1.63 11 5.4 21.39 10.39 30.56 3.77 5.705 7.538 10.7 11.31 16.1 1.554 2.997 2.718 6.181 3.463 9.474 2.446 3.464 6.012 5.705 10.39 6.928 5.349 1.926 11.03 2.757 16.71 2.445h0.61c5.706 0.305 11.72-0.612 17.22-2.445 4.075-1.325 7.539-3.464 10.09-6.928h0.305c0.635-3.282 1.697-6.467 3.158-9.474 3.77-5.4 7.54-10.39 11.31-16.1 4.991-9.067 8.456-19.46 10.39-30.56-2.037 2.853-6.724 5.298-15.18 7.234z" fill="url(#paint1_linear)"/>
  <path d="m155.6 17v44.23c0 8.91 7.259 15.93 16.17 15.93l44.23-0.0112v-2l-60.4-58.15z" fill="#282828" opacity=".25"/>
  <path d="m155.6 15v44.23c0 8.91 7.259 15.93 16.17 15.93l44.23-0.0112-60.4-60.15z" fill="url(#paint2_linear)"/>
  <defs>
    <linearGradient id="paint0_linear" x1="39" x2="39" y1="15" y2="240.2" gradientUnits="userSpaceOnUse">
      <stop stop-color="#b16286" offset="1e-7"/>
      <stop stop-color="#8f3f71" offset="1"/>
    </linearGradient>
    <linearGradient id="paint1_linear" x1="72" x2="72" y1="83" y2="173.1" gradientUnits="userSpaceOnUse">
      <stop stop-color="#b16286" offset="1e-7"/>
      <stop stop-color="#8f3f71" offset="1"/>
    </linearGradient>
    <linearGradient id="paint2_linear" x1="155.6" x2="155.6" y1="15" y2="75.16" gradientUnits="userSpaceOnUse">
      <stop stop-color="#b16286" offset="1e-7"/>
      <stop stop-color="#8f3f71" offset="1"/>
    </linearGradient>
  </defs>
</svg>
